X: 10142
T: Din Tarrant's
R: polka
M: 2/4
K: Gmajor
D|:G>G GA|B>A Bd|G>B dB|AG ED|
G>G GA|B>A Bd|e/f/g fg|1 AG GD:|2 AG G2||
|:Bd de/f/|gf ed|B/c/d de/f/|gB A2|
Bd de/f/|gf ed|B/c/d B/c/d|1 BG G2:|2 BG GD||

